X:1
T:Wonderful Words of Life
T:Wonderful Words of Life
T:Philip Paul Bliss
T:Philip Paul Bliss, 1874
T:Public Domain Courtesy of the Cyber Hymnal™
T:Public Domain Courtesy of the Cyber Hymnal™
C:Philip Paul Bliss
Z:Public Domain
Z:Courtesy of the Cyber Hymnal™
%%score ( 1 2 ) ( 3 4 )
L:1/8
M:6/8
K:F
V:1 treble 
V:2 treble 
V:3 bass 
V:4 bass 
V:1
 [CA]2 [CA] [CA][DB][CA] | [CA]2 [B,G] [B,G]3 | [B,C][B,G][B,G] [CA]2 [B,G] | (F3 C3) | %4
w: 1.~Sing them o- ver a-|gain to me,|won- der- ful words of|life, *|
w: 2.~Christ, the bless- èd One,|gives to all|won- de- rful words of|life; *|
w: 3.~Sweet- ly e- cho the|Gos- pel call,|won- der- ful words of|life; *|
 [CA]2 [CA] [CA][DB][CA] | [CA]2 [B,G] [B,G]3 | [B,C][B,G][B,G] [CA]2 [B,G] | [A,F]6 | %8
w: Let me more of their|beau- ty see,|won- der- ful words of|life;|
w: Sin- ner, list to the|lov- ing call,|won- de- ful words of|life;|
w: Of- fer par- don and|peace to all,|won- der- ful words of|life;|
 [FA]2 [FA] ([FA][GB])[Ac] | [Bd]3 [Ac]3 | [FA]2 [FA] ([FA][GB])[Ac] | [Bd]3 [Ac]3 || %12
w: Words of life * and|beau- ty|teach me faith * and|du- ty.|
w: All so free- * ly|giv- en,|woo- ing us * to|Hea- ven.|
w: Je- sus, on- * ly|Sav- ior,|sanc- ti- fy~us * for-|ev- er.|
"^Refrain" [Ac][GB][GB] [GB]3 | [GB][FA][FA] [FA]3 | [FA][CG][CF] [CG]2 [CE] | (F2 A [Fc]3) | %16
w: ||||
w: Beau- ti- ful words,|won- de- rful words,|won- de- rful words of|life, * *|
w: ||||
 [Ac][GB][GB] [GB]3 | [GB][FA][FA] [FA]3 | [FA][CG][CF] [CG]2 [CE] | [CF]6 |] %20
w: ||||
w: Beau- ti- ful words,|won- de- rful words,|won- de- rful words of|life.|
w: ||||
V:2
 x6 | x6 | x6 | A,6 | x6 | x6 | x6 | x6 | x6 | x6 | x6 | x6 || x6 | x6 | x6 | C3 x3 | x6 | x6 | %18
 x6 | x6 |] %20
V:3
 F,2 F, F,F,F, | [C,F,]2 [C,E,] [C,E,]3 | [C,E,][C,E,][C,E,] [C,E,]2 [C,E,] | F,6 | F,2 F, F,F,F, | %5
 [C,F,]2 [C,E,] [C,E,]3 | [C,E,][C,E,][C,E,] [C,E,]2 [C,E,] | [F,,F,]6 | F,2 F, F,2 F, | F,3 F,3 | %10
 F,2 F, F,2 F, | F,3 F,3 || [C,C][C,C][C,C] [C,C]3 | [F,C][F,C][F,C] [F,C]3 | %14
 [C,C][C,B,][C,A,] [C,B,]2 [C,G,] | [F,A,]6 | [C,C][C,C][C,C] [C,C]3 | [F,C][F,C][F,C] [F,C]3 | %18
 [C,C][C,B,][C,A,] [C,B,]2 [C,G,] | [F,A,]6 |] %20
V:4
 F,2 F, F,F,F, | x6 | x6 | F,6 | F,2 F, F,F,F, | x6 | x6 | x6 | F,2 F, F,2 F, | F,3 F,3 | %10
 F,2 F, F,2 F, | F,3 F,3 || x6 | x6 | x6 | x6 | x6 | x6 | x6 | x6 |] %20

